src/assets/icons/plus.svg

<?xml version="1.0" encoding="UTF-8" standalone="no"?>
<svg
   xmlns:dc="http://purl.org/dc/elements/1.1/"
   xmlns:cc="http://creativecommons.org/ns#"
   xmlns:rdf="http://www.w3.org/1999/02/22-rdf-syntax-ns#"
   xmlns:svg="http://www.w3.org/2000/svg"
   xmlns="http://www.w3.org/2000/svg"
   xmlns:sodipodi="http://sodipodi.sourceforge.net/DTD/sodipodi-0.dtd"
   xmlns:inkscape="http://www.inkscape.org/namespaces/inkscape"
   width="24"
   height="24"
   viewBox="0 0 24 24"
   fill="none"
   version="1.1"
   id="svg4"
   sodipodi:docname="plus.svg"
   inkscape:version="0.92.4 (5da689c313, 2019-01-14)">
  <metadata
     id="metadata10">
    <rdf:RDF>
      <cc:Work
         rdf:about="">
        <dc:format>image/svg+xml</dc:format>
        <dc:type
           rdf:resource="http://purl.org/dc/dcmitype/StillImage" />
      </cc:Work>
    </rdf:RDF>
  </metadata>
  <defs
     id="defs8" />
  <sodipodi:namedview
     pagecolor="#ffffff"
     bordercolor="#666666"
     borderopacity="1"
     objecttolerance="10"
     gridtolerance="10"
     guidetolerance="10"
     inkscape:pageopacity="0"
     inkscape:pageshadow="2"
     inkscape:window-width="2560"
     inkscape:window-height="1356"
     id="namedview6"
     showgrid="false"
     inkscape:zoom="9.8333333"
     inkscape:cx="-4.5254238"
     inkscape:cy="12"
     inkscape:window-x="1072"
     inkscape:window-y="370"
     inkscape:window-maximized="1"
     inkscape:current-layer="svg4" />
  <ellipse
     style="fill:#a80005;fill-opacity:0.96482412;stroke-width:1.00865519"
     id="path812"
     cx="12"
     cy="12"
     rx="11.95"
     ry="11.898712" />
  <path
     d="m 11.98829,6.9893257 c -0.1988,0.0031 -0.3881,0.08497 -0.5266,0.2276 -0.1384,0.14264 -0.2146,0.33439 -0.2117,0.53314 V 11.250066 H 7.7499902 c -0.09938,-0.0014 -0.19806,0.017 -0.29028,0.054 -0.09223,0.0371 -0.17617,0.0921 -0.24695,0.1619 -0.07077,0.0698 -0.12698,0.1529 -0.16534,0.2446 -0.03836,0.0917 -0.05811,0.1901 -0.05811,0.2895 0,0.0994 0.01975,0.1978 0.05811,0.2895 0.03836,0.0917 0.09457,0.1748 0.16534,0.2446 0.07078,0.0698 0.15472,0.1248 0.24695,0.1619 0.09222,0.037 0.1909,0.0554 0.29028,0.054 H 11.24999 v 3.5 c -0.0014,0.0994 0.017,0.1981 0.054,0.2903 0.0371,0.0922 0.0921,0.1761 0.1619,0.2469 0.0698,0.0708 0.1529,0.127 0.2446,0.1654 0.0917,0.0383 0.1901,0.0581 0.2895,0.0581 0.0994,0 0.1978,-0.0198 0.2895,-0.0581 0.0917,-0.0384 0.1748,-0.0946 0.2446,-0.1654 0.0698,-0.0708 0.1248,-0.1547 0.1619,-0.2469 0.037,-0.0922 0.0554,-0.1909 0.054,-0.2903 v -3.5 h 3.5 c 0.0994,0.0014 0.1981,-0.017 0.2903,-0.054 0.0922,-0.0371 0.1761,-0.0921 0.2469,-0.1619 0.0708,-0.0698 0.127,-0.1529 0.1654,-0.2446 0.0383,-0.0917 0.0581,-0.1901 0.0581,-0.2895 0,-0.0994 -0.0198,-0.1978 -0.0581,-0.2895 -0.0384,-0.0917 -0.0946,-0.1748 -0.1654,-0.2446 -0.0708,-0.0698 -0.1547,-0.1248 -0.2469,-0.1619 -0.0922,-0.037 -0.1909,-0.0554 -0.2903,-0.054 h -3.5 V 7.7500657 c 0.0014,-0.10038 -0.0173,-0.20003 -0.0551,-0.29305 -0.0378,-0.09301 -0.0938,-0.17749 -0.1649,-0.24843 -0.071,-0.07094 -0.1555,-0.12691 -0.2486,-0.16457 -0.0931,-0.03766 -0.1927,-0.05626 -0.2931,-0.05469 z"
     id="path2"
     style="fill:#ffffff;fill-opacity:0.96482412"
     inkscape:connector-curvature="0"
     sodipodi:nodetypes="cccccccsssccccccscscscccccscscsccccccsc" />
</svg>

<svg width="24" height="24" viewBox="0 0 24 24" fill="black" xmlns="http://www.w3.org/2000/svg">
<path d="M12 2C6.48603 2 2 6.48604 2 12C2 17.514 6.48603 22 12 22C17.514 22 22 17.514 22 12C22 6.48604 17.514 2 12 2ZM12 3.5C16.7033 3.5 20.5 7.2967 20.5 12C20.5 16.7033 16.7033 20.5 12 20.5C7.29669 20.5 3.5 16.7033 3.5 12C3.5 7.2967 7.29669 3.5 12 3.5ZM11.9883 6.98926C11.7895 6.99236 11.6002 7.07423 11.4617 7.21686C11.3233 7.3595 11.2471 7.55125 11.25 7.75V11.25H7.75C7.65062 11.2486 7.55194 11.267 7.45972 11.304C7.36749 11.3411 7.28355 11.3961 7.21277 11.4659C7.142 11.5357 7.08579 11.6188 7.04743 11.7105C7.00907 11.8022 6.98932 11.9006 6.98932 12C6.98932 12.0994 7.00907 12.1978 7.04743 12.2895C7.08579 12.3812 7.142 12.4643 7.21277 12.5341C7.28355 12.6039 7.36749 12.6589 7.45972 12.696C7.55194 12.733 7.65062 12.7514 7.75 12.75H11.25V16.25C11.2486 16.3494 11.267 16.4481 11.304 16.5403C11.3411 16.6325 11.3961 16.7164 11.4659 16.7872C11.5357 16.858 11.6188 16.9142 11.7105 16.9526C11.8022 16.9909 11.9006 17.0107 12 17.0107C12.0994 17.0107 12.1978 16.9909 12.2895 16.9526C12.3812 16.9142 12.4643 16.858 12.5341 16.7872C12.6039 16.7164 12.6589 16.6325 12.696 16.5403C12.733 16.4481 12.7514 16.3494 12.75 16.25V12.75H16.25C16.3494 12.7514 16.4481 12.733 16.5403 12.696C16.6325 12.6589 16.7164 12.6039 16.7872 12.5341C16.858 12.4643 16.9142 12.3812 16.9526 12.2895C16.9909 12.1978 17.0107 12.0994 17.0107 12C17.0107 11.9006 16.9909 11.8022 16.9526 11.7105C16.9142 11.6188 16.858 11.5357 16.7872 11.4659C16.7164 11.3961 16.6325 11.3411 16.5403 11.304C16.4481 11.267 16.3494 11.2486 16.25 11.25H12.75V7.75C12.7514 7.64962 12.7327 7.54997 12.6949 7.45695C12.6571 7.36394 12.6011 7.27946 12.53 7.20852C12.459 7.13758 12.3745 7.08161 12.2814 7.04395C12.1883 7.00629 12.0887 6.98769 11.9883 6.98926Z" />
</svg>
